images.jpg/client-6.svg

<svg width="94" height="45" viewBox="0 0 94 45" fill="none" xmlns="http://www.w3.org/2000/svg">
<path d="M47.425 21.4082C46.9819 20.8184 46.7699 20.1213 46.8203 19.4196V16.5364C46.8203 15.6526 47.0207 14.9809 47.4216 14.5214C47.8224 14.0619 48.511 13.8331 49.4871 13.8351C50.4044 13.8351 51.0555 14.0306 51.4405 14.4217C51.8605 14.9207 52.0648 15.5309 52.018 16.1463V16.8239H50.3772V16.1375C50.383 15.9129 50.3671 15.6882 50.3296 15.4659C50.306 15.3138 50.2234 15.1732 50.0952 15.067C49.9267 14.9525 49.7145 14.897 49.5007 14.9115C49.2759 14.897 49.0529 14.9556 48.8756 15.0758C48.7327 15.1935 48.6374 15.3477 48.6038 15.5157C48.5567 15.7511 48.5351 15.9897 48.5393 16.2285V19.7276C48.5134 20.0652 48.5858 20.403 48.7499 20.7102C48.8315 20.8141 48.9448 20.8965 49.0774 20.9483C49.2099 21.0001 49.3564 21.0192 49.5007 21.0035C49.7109 21.0184 49.9195 20.9615 50.0816 20.8451C50.2153 20.7305 50.3013 20.581 50.3262 20.4198C50.3645 20.1877 50.3816 19.9533 50.3772 19.7188V19.009H52.018V19.6572C52.0641 20.2988 51.8648 20.9356 51.4507 21.4698C51.0736 21.8981 50.4315 22.1122 49.4871 22.1122C48.5427 22.1122 47.8292 21.8834 47.425 21.4082Z" fill="#AFB1B8"/>
<path d="M54.2569 21.4376C53.8424 20.9888 53.6352 20.3347 53.6352 19.4695V16.4367C53.6352 15.5803 53.8424 14.9321 54.2569 14.4921C54.6713 14.0521 55.3644 13.8331 56.3359 13.8351C57.3007 13.8351 57.9904 14.0541 58.4048 14.4921C58.8193 14.9321 59.0299 15.5803 59.0299 16.4367V19.4695C59.0299 20.3259 58.8193 20.9829 58.398 21.4346C57.9768 21.8863 57.2906 22.1122 56.3359 22.1122C55.3813 22.1122 54.6747 21.8834 54.2569 21.4376ZM57.1003 20.7102C57.2487 20.4291 57.3163 20.1212 57.2974 19.8127V16.0994C57.3164 15.7969 57.2499 15.4949 57.1037 15.2195C57.0205 15.1134 56.9043 15.0296 56.7686 14.9777C56.6328 14.9259 56.4829 14.908 56.3359 14.9262C56.1885 14.9085 56.0383 14.9265 55.9021 14.9783C55.7659 15.0301 55.6491 15.1136 55.5648 15.2195C55.4154 15.4941 55.3477 15.7965 55.3678 16.0994V19.8303C55.3471 20.1389 55.4148 20.4471 55.5648 20.7278C55.6604 20.8224 55.7785 20.8982 55.9109 20.9502C56.0433 21.0021 56.1871 21.029 56.3326 21.029C56.478 21.029 56.6218 21.0021 56.7542 20.9502C56.8866 20.8982 57.0047 20.8224 57.1003 20.7278V20.7102Z" fill="#AFB1B8"/>
<path d="M61.0035 13.9236H62.7701L64.0984 19.5192L65.4573 13.9236H67.1763L67.3496 22.0003H66.079L65.9431 16.3871L64.6318 22.0003H63.6126L62.2537 16.3665L62.128 22.0003H60.8439L61.0035 13.9236Z" fill="#AFB1B8"/>
<path d="M69.3302 13.9236H72.0819C73.6673 13.9236 74.4599 14.688 74.4599 16.217C74.4599 17.6814 73.6254 18.4126 71.9562 18.4106H71.0186V22.0003H69.32L69.3302 13.9236ZM71.6811 17.3754C71.8489 17.3938 72.0193 17.3805 72.1806 17.3364C72.3419 17.2924 72.4902 17.2186 72.6153 17.1203C72.8101 16.8475 72.896 16.5271 72.8599 16.2082C72.8688 15.9618 72.8414 15.7154 72.7783 15.475C72.7541 15.3947 72.7116 15.3194 72.6533 15.2534C72.5949 15.1874 72.522 15.1322 72.4386 15.0908C72.2028 14.9932 71.9422 14.9488 71.6811 14.9618H71.022V17.3754H71.6811Z" fill="#AFB1B8"/>
<path d="M76.9094 13.9236H78.7337L80.6055 22.0003H79.0225L78.6522 20.138H77.0249L76.6444 22.0003H75.0376L76.9094 13.9236ZM78.4687 19.2025L77.8334 15.8123L77.1982 19.2025H78.4687Z" fill="#AFB1B8"/>
<path d="M82.1173 13.9236H83.3063L85.5825 18.5309V13.9236H86.9923V22.0003H85.861L83.5713 17.1906V22.0003H82.1139L82.1173 13.9236Z" fill="#AFB1B8"/>
<path d="M90.2945 18.9208L88.4022 13.9349H89.9955L91.1506 17.1376L92.2343 13.9349H93.7936L91.9251 18.9208V22.0003H90.2945V18.9208Z" fill="#AFB1B8"/>
<path d="M50.0477 25.5316V25.954H48.6617V29.2359H48.0807V25.954H46.6879V25.5316H50.0477Z" fill="#AFB1B8"/>
<path d="M54.3927 29.2362H53.9442C53.8987 29.2386 53.8538 29.2261 53.8185 29.201C53.7846 29.1795 53.7587 29.15 53.7438 29.116L53.3429 28.2361H51.4201L51.0192 29.116C51.0078 29.1528 50.9869 29.1868 50.958 29.2157C50.9225 29.2402 50.8778 29.2527 50.8324 29.2509H50.3839L52.0825 25.5468H52.6737L54.3927 29.2362ZM51.5797 27.8607H53.1833L52.5038 26.3533C52.4537 26.2393 52.4117 26.1227 52.3781 26.0043C52.3543 26.0747 52.3339 26.1421 52.3136 26.2008L52.2524 26.3562L51.5797 27.8607Z" fill="#AFB1B8"/>
<path d="M57.3211 28.8724C57.4275 28.8772 57.5341 28.8772 57.6404 28.8724C57.7323 28.8642 57.8232 28.8495 57.9122 28.8284C57.9954 28.8107 58.0772 28.7882 58.1568 28.7609C58.2316 28.7345 58.3063 28.7022 58.3844 28.67V27.8369H57.705C57.6882 27.8378 57.6714 27.8356 57.6556 27.8305C57.6398 27.8255 57.6254 27.8177 57.6133 27.8076C57.6021 27.7993 57.5933 27.7889 57.5874 27.7772C57.5815 27.7655 57.5787 27.7529 57.5793 27.7401V27.4556H58.8974V28.8753C58.7898 28.9417 58.6762 29.0006 58.5577 29.0513C58.4366 29.1029 58.3104 29.1451 58.1806 29.1774C58.0417 29.2127 57.8996 29.2382 57.7559 29.2537C57.5912 29.2695 57.4257 29.2773 57.26 29.2771C56.967 29.2793 56.6763 29.2325 56.4038 29.1393C56.1495 29.051 55.9184 28.9193 55.7244 28.7521C55.5353 28.5832 55.3864 28.3839 55.2862 28.1655C55.1791 27.9199 55.1261 27.6593 55.1299 27.397C55.1263 27.133 55.1781 26.8706 55.2828 26.6226C55.3805 26.4031 55.5297 26.2033 55.721 26.036C55.9149 25.8693 56.1461 25.7386 56.4005 25.6517C56.6914 25.5572 57.0001 25.5105 57.3109 25.5138C57.4691 25.5137 57.627 25.5245 57.7831 25.5461C57.9212 25.5655 58.0567 25.597 58.1874 25.64C58.3062 25.6785 58.4201 25.7277 58.5271 25.7866C58.6312 25.8445 58.7301 25.9092 58.8227 25.9802L58.6596 26.209C58.6468 26.2299 58.6278 26.2475 58.6045 26.2598C58.5812 26.2722 58.5545 26.279 58.5271 26.2794C58.4895 26.2784 58.453 26.2682 58.4218 26.2501C58.3708 26.2266 58.3165 26.1973 58.2553 26.1621C58.1831 26.123 58.1069 26.0896 58.0277 26.0624C57.9265 26.0273 57.8219 25.9998 57.7152 25.9802C57.5729 25.9576 57.4284 25.9468 57.2837 25.948C57.0596 25.9458 56.8371 25.9807 56.6281 26.0506C56.439 26.1161 56.2686 26.2162 56.1287 26.3439C55.9879 26.4771 55.8803 26.6339 55.8127 26.8045C55.661 27.2056 55.661 27.6381 55.8127 28.0393C55.8871 28.2135 56.0028 28.3724 56.1525 28.5057C56.2918 28.6328 56.4609 28.7328 56.6485 28.799C56.8645 28.8631 57.0934 28.888 57.3211 28.8724Z" fill="#AFB1B8"/>
<path d="M62.7362 28.8136H64.5911V29.2359H62.1689V25.5316H62.7498L62.7362 28.8136Z" fill="#AFB1B8"/>
<path d="M66.5208 29.2359H65.9398V25.5316H66.5208V29.2359Z" fill="#AFB1B8"/>
<path d="M68.6814 25.5492C68.7159 25.5662 68.746 25.5892 68.7697 25.6167L71.253 28.409C71.2497 28.3651 71.2497 28.321 71.253 28.277C71.253 28.236 71.253 28.1949 71.253 28.1568V25.517H71.7592V29.2362H71.4671C71.4238 29.2392 71.3804 29.2321 71.3414 29.2156C71.3061 29.1972 71.275 29.1733 71.2496 29.1452L68.7697 26.3558C68.7697 26.3998 68.7697 26.4409 68.7697 26.482C68.7697 26.523 68.7697 26.5612 68.7697 26.5964V29.2362H68.2839V25.5316H68.5863C68.6191 25.5317 68.6515 25.5377 68.6814 25.5492Z" fill="#AFB1B8"/>
<path d="M76.0364 25.5316V25.9393H73.9777V27.1624H75.6457V27.5554H73.9777V28.8195H76.0364V29.2272H73.3798V25.5316H76.0364Z" fill="#AFB1B8"/>
<path d="M15.1617 2.65551L40.9568 8.97882V31.1368L15.1617 24.8164V2.65551ZM13.5073 0.766724V25.8928L42.6079 33.0285V7.90538L13.5073 0.766724Z" fill="#AFB1B8"/>
<path d="M29.1039 44.6922L0 37.5505V12.4271L29.1039 19.5659V44.6922Z" fill="#AFB1B8"/>
<path d="M13.9897 2.37099L39.4484 8.615L28.6215 17.9649L3.1594 11.7179L13.9897 2.37099ZM13.5073 0.766724L0 12.4277L29.1039 19.5662L42.6078 7.90525L13.5073 0.766724Z" fill="#AFB1B8"/>
<path d="M30.7414 43.2788L42.6078 33.0315L30.7414 30.1193V43.2788Z" fill="#AFB1B8"/>
</svg>

<svg width="94" height="45" fill="none" xmlns="http://www.w3.org/2000/svg"><path d="M47.425 21.408a2.947 2.947 0 0 1-.605-1.988v-2.884c0-.883.2-1.555.602-2.015.4-.46 1.089-.688 2.065-.686.917 0 1.569.196 1.953.587.42.499.625 1.109.578 1.724v.678h-1.64v-.687c.005-.224-.01-.449-.048-.671a.65.65 0 0 0-.235-.399.95.95 0 0 0-.594-.155 1.005 1.005 0 0 0-.625.164.768.768 0 0 0-.272.44 3.332 3.332 0 0 0-.065.713v3.499c-.026.337.047.675.21.982a.77.77 0 0 0 .328.238.9.9 0 0 0 .424.055.893.893 0 0 0 .58-.158.704.704 0 0 0 .245-.425c.038-.232.056-.467.051-.701v-.71h1.641v.648a2.64 2.64 0 0 1-.567 1.813c-.377.428-1.02.642-1.964.642s-1.658-.229-2.062-.704ZM54.257 21.438c-.415-.45-.622-1.103-.622-1.968v-3.033c0-.857.207-1.505.622-1.945.414-.44 1.107-.659 2.079-.657.965 0 1.654.22 2.069.657.414.44.625 1.088.625 1.945v3.032c0 .857-.21 1.514-.632 1.966-.421.451-1.107.677-2.062.677-.955 0-1.661-.229-2.08-.674Zm2.843-.728c.149-.28.216-.589.197-.897v-3.714a1.65 1.65 0 0 0-.193-.88.776.776 0 0 0-.335-.241.907.907 0 0 0-.433-.052.918.918 0 0 0-.434.052.786.786 0 0 0-.337.242c-.15.274-.217.576-.197.88v3.73c-.02.309.047.617.197.898.095.094.214.17.346.222a1.158 1.158 0 0 0 .843 0c.133-.052.25-.128.346-.222v-.018ZM61.004 13.924h1.766l1.328 5.595 1.36-5.595h1.718L67.35 22h-1.271l-.136-5.613L64.632 22h-1.02l-1.358-5.634L62.128 22h-1.284l.16-8.076ZM69.33 13.924h2.752c1.585 0 2.378.764 2.378 2.293 0 1.464-.835 2.196-2.504 2.194h-.937V22H69.32l.01-8.077Zm2.351 3.451c.168.019.338.006.5-.039.16-.044.31-.117.434-.216.195-.273.281-.593.245-.912a2.525 2.525 0 0 0-.082-.733.594.594 0 0 0-.125-.222.703.703 0 0 0-.214-.162 1.759 1.759 0 0 0-.758-.13h-.659v2.414h.66ZM76.91 13.924h1.824L80.606 22h-1.584l-.37-1.862h-1.627L76.645 22h-1.607l1.871-8.076Zm1.559 5.279-.636-3.39-.635 3.39h1.27ZM82.117 13.924h1.19l2.275 4.607v-4.607h1.41V22h-1.131l-2.29-4.81V22h-1.457l.003-8.076ZM90.294 18.92l-1.892-4.985h1.594l1.155 3.203 1.083-3.203h1.56l-1.869 4.986V22h-1.63v-3.08ZM50.048 25.532v.422h-1.386v3.282h-.581v-3.282h-1.393v-.422h3.36ZM54.393 29.236h-.449a.2.2 0 0 1-.126-.035.194.194 0 0 1-.074-.085l-.401-.88H51.42l-.4.88a.243.243 0 0 1-.062.1.208.208 0 0 1-.126.035h-.448l1.699-3.704h.59l1.72 3.69Zm-2.813-1.375h1.603l-.68-1.508a2.699 2.699 0 0 1-.125-.349c-.024.07-.044.138-.064.197l-.062.155-.672 1.505ZM57.321 28.872c.107.005.213.005.32 0 .091-.008.182-.023.271-.044.083-.017.165-.04.245-.067.075-.026.15-.059.227-.091v-.833h-.679a.137.137 0 0 1-.092-.03.086.086 0 0 1-.026-.03.074.074 0 0 1-.008-.037v-.284h1.318v1.42a2.578 2.578 0 0 1-.716.301c-.14.036-.281.061-.425.077-.165.015-.33.023-.496.023a2.59 2.59 0 0 1-.856-.138 2.09 2.09 0 0 1-.68-.387 1.79 1.79 0 0 1-.438-.586 1.851 1.851 0 0 1-.156-.769 1.92 1.92 0 0 1 .153-.774c.097-.22.247-.42.438-.587.194-.167.425-.297.68-.384.29-.095.6-.142.91-.138.158 0 .316.01.472.032.138.02.274.051.404.094.12.038.233.088.34.147.104.058.203.122.296.193l-.163.229a.142.142 0 0 1-.055.05.17.17 0 0 1-.078.02.222.222 0 0 1-.105-.029 2.113 2.113 0 0 1-.167-.088 1.504 1.504 0 0 0-.227-.1 2.127 2.127 0 0 0-.313-.082 2.614 2.614 0 0 0-.431-.032 2.009 2.009 0 0 0-.656.103c-.189.065-.36.165-.5.293a1.29 1.29 0 0 0-.315.46 1.732 1.732 0 0 0 0 1.235c.074.174.19.333.34.467.139.127.308.227.495.293.216.064.445.089.673.073ZM62.736 28.814h1.855v.422H62.17v-3.704h.58l-.013 3.282ZM66.52 29.236h-.58v-3.704h.58v3.704ZM68.681 25.55a.28.28 0 0 1 .089.067l2.483 2.792a.881.881 0 0 1 0-.132V25.517h.506v3.72h-.292a.275.275 0 0 1-.126-.021.328.328 0 0 1-.091-.07l-2.48-2.79v2.88h-.486v-3.704h.302c.033 0 .066.006.095.017ZM76.036 25.532v.407h-2.058v1.223h1.668v.393h-1.668v1.265h2.058v.407H73.38v-3.695h2.656ZM15.162 2.656l25.795 6.323v22.158l-25.795-6.32V2.655ZM13.507.766v25.127l29.1 7.136V7.905L13.508.767Z" fill="#AFB1B8"/><path d="M29.104 44.692 0 37.55V12.427l29.104 7.139v25.126Z" fill="#AFB1B8"/><path d="m13.99 2.371 25.458 6.244-10.826 9.35-25.463-6.247L13.99 2.37ZM13.507.767 0 12.427l29.104 7.14L42.608 7.904 13.508.767ZM30.741 43.279 42.608 33.03 30.74 30.12v13.16Z" fill="#AFB1B8"/></svg>
